ametion_vv-test/img/icons/share.svg

<svg width="18" height="20" fill="none" xmlns="http://www.w3.org/2000/svg"><path d="M15 14.08c-.76 0-1.44.3-1.96.77L5.91 10.7c.05-.23.09-.46.09-.7 0-.24-.04-.47-.09-.7l7.05-4.11c.54.5 1.25.81 2.04.81 1.66 0 3-1.34 3-3s-1.34-3-3-3-3 1.34-3 3c0 .24.04.47.09.7L5.04 7.81C4.5 7.31 3.79 7 3 7c-1.66 0-3 1.34-3 3s1.34 3 3 3c.79 0 1.5-.31 2.04-.81l7.12 4.16c-.05.21-.08.43-.08.65 0 1.61 1.31 2.92 2.92 2.92 1.61 0 2.92-1.31 2.92-2.92 0-1.61-1.31-2.92-2.92-2.92z" fill="#36BA5F"/></svg>

<svg width="18" height="20" viewBox="0 0 18 20" fill="none" xmlns="http://www.w3.org/2000/svg">
<path d="M15 14.08C14.24 14.08 13.56 14.38 13.04 14.85L5.91 10.7C5.96 10.47 6 10.24 6 10C6 9.76 5.96 9.53 5.91 9.3L12.96 5.19C13.5 5.69 14.21 6 15 6C16.66 6 18 4.66 18 3C18 1.34 16.66 0 15 0C13.34 0 12 1.34 12 3C12 3.24 12.04 3.47 12.09 3.7L5.04 7.81C4.5 7.31 3.79 7 3 7C1.34 7 0 8.34 0 10C0 11.66 1.34 13 3 13C3.79 13 4.5 12.69 5.04 12.19L12.16 16.35C12.11 16.56 12.08 16.78 12.08 17C12.08 18.61 13.39 19.92 15 19.92C16.61 19.92 17.92 18.61 17.92 17C17.92 15.39 16.61 14.08 15 14.08Z" fill="#36BA5F"/>
</svg>
